packages/gestalt-icons-android/vr-theme/ic_vr_download_gestalt.svg

<svg width="24" height="24" viewBox="0 0 24 24" fill="none" xmlns="http://www.w3.org/2000/svg">
<path d="M16.293 7.79302L13.0001 11.0859V0H11.0001V11.0859L7.70718 7.79301L6.29297 9.20723L12.0001 14.9143L17.7072 9.20723L16.293 7.79302Z" fill="black"/>
<path d="M2 18.0001V13.0001H0V18.0001C0 20.2093 1.79086 22.0001 4 22.0001H20C22.2091 22.0001 24 20.2093 24 18.0001V13.0001H22V18.0001C22 19.1047 21.1046 20.0001 20 20.0001H4C2.89543 20.0001 2 19.1047 2 18.0001Z" fill="black"/>
</svg>

<svg xmlns="http://www.w3.org/2000/svg" width="24" height="24"><path d="M16.3 7.8 13 11.08V0h-2v11.09l-3.3-3.3-1.4 1.42 5.7 5.7 5.7-5.7zM2 18v-5H0v5a4 4 0 0 0 4 4h16a4 4 0 0 0 4-4v-5h-2v5a2 2 0 0 1-2 2H4a2 2 0 0 1-2-2"/></svg>
